static/data/images/sponsors/devangels.svg

<svg height="256" viewBox="0 0 720 256" width="720" xmlns="http://www.w3.org/2000/svg" xmlns:xlink="http://www.w3.org/1999/xlink"><linearGradient id="a" x1="19.632334%" x2="80.358313%" y1="58.024592%" y2="41.965126%"><stop offset=".04250693" stop-color="#fbb040"/><stop offset=".4914" stop-color="#fffbcc"/><stop offset="1" stop-color="#fbb040"/></linearGradient><radialGradient id="b" cx="50.00754%" cy="50.118145%" gradientTransform="matrix(.58441919 -.05016729 .02935569 .99874083 .193109 .025718)" r="85.365699%"><stop offset=".2059" stop-color="#fff"/><stop offset="1" stop-color="#fff" stop-opacity="0"/></radialGradient><radialGradient id="c" cx="49.988255%" cy="50.419097%" gradientTransform="matrix(.60820407 -.08161752 .04980628 .99666372 .17074 .042481)" r="82.041862%"><stop offset=".2617" stop-color="#fff"/><stop offset="1" stop-color="#fff" stop-opacity="0"/></radialGradient><g fill="none" transform="translate(-1)"><g transform="translate(.769739 106.882205)"><path d="m76.7819823 62.864736c-2.2281166 5.2519892-5.4111404 9.8673737-9.5490714 13.6869864-4.1379309 3.8196285-8.9124666 7.0026523-14.6419094 9.2307531-5.7294429 2.2281167-11.9363393 3.342175-18.6206893 3.342175h-33.74005226v-86.73728716h33.74005226c6.8435012 0 13.0503976 1.11405833 18.6206893 3.34217499 5.7294428 2.22811666 10.5039785 5.25198927 14.6419094 9.07160187 4.137931 3.8196286 7.3209548 8.4350131 9.5490714 13.6869865 2.2281167 5.2519892 3.342175 10.9814162 3.342175 17.0291614v.3183024c.1591512 6.0477293-1.1140583 11.7771721-3.342175 17.0291455zm-16.5517237-17.0291455c0-3.8196286-.6366048-7.3209548-1.9098143-10.5039627-1.2732095-3.1830238-3.0238726-6.0477452-5.2519893-8.2758618-2.2281166-2.3872679-5.0928381-4.1379151-8.2758619-5.4111246s-6.8435011-1.9098143-10.6631297-1.9098143h-14.8010607v52.2015267h14.8010607c3.8196286 0 7.4801059-.6366048 10.6631297-1.9098143s5.8885941-3.0238726 8.2758619-5.2519893c2.2281167-2.3872678 3.9787798-5.0928221 5.2519893-8.1166947 1.2732095-3.1830238 1.9098143-6.68435 1.9098143-10.5039627z" fill="#fff"/><path d="m89.036624 89.1246505v-86.73728716h65.251988v17.02916146h-46.472148v17.6657502h40.901856v17.0291614h-40.901856v18.1432198h47.108753v17.0291455h-65.888593z" fill="#000"/><g fill="#808285"><path d="m383.625477 89.1246505-42.015915-55.0662322v55.0662322h-18.77984v-86.73728716h17.665782l40.583554 53.31558496v-53.31558496h18.77984v86.73728716z"/><path d="m477.365528 86.5782314c-6.206897 2.7055703-13.209549 3.9787798-21.167109 3.9787798-6.843501 0-12.891246-1.1140583-18.461538-3.342175-5.570291-2.2281007-10.344827-5.2519734-14.323607-9.2307531-3.97878-3.9787798-7.161803-8.5941483-9.38992-14.16444-2.228117-5.4111245-3.342175-11.4588698-3.342175-17.8249014v-.3183024c0-6.2068964 1.114058-11.9363234 3.342175-17.3474638 2.228117-5.4111246 5.41114-10.1856603 9.549071-14.16444 3.97878-4.137915 8.912467-7.32093884 14.323607-9.70820669 5.570292-2.38726785 11.618037-3.50132618 18.143236-3.50132618 3.819629 0 7.480106.31830238 10.66313.79575595s6.206896 1.27320952 8.912466 2.22811666c2.705571.95490714 5.25199 2.22811666 7.639258 3.66047737 2.387267 1.43236071 4.774535 3.18302379 7.002652 5.09282219l-11.936339 14.4827424c-1.591512-1.4323608-3.342175-2.7055703-4.933687-3.6604615-1.591512-1.1140583-3.342175-1.9098143-5.092838-2.7055702-1.750663-.795756-3.660478-1.2732096-5.729443-1.7506631-2.068966-.4774536-4.297082-.6366048-6.843501-.6366048-3.501326 0-6.68435.795756-9.708223 2.2281167-3.023872 1.4323607-5.729443 3.3421591-7.957559 5.8885781-2.228117 2.3872678-3.97878 5.2519893-5.25199 8.5941643-1.273209 3.342159-1.909814 6.8434852-1.909814 10.5039626v.3183024c0 3.9787638.636605 7.6392412 1.909814 10.9814162 1.27321 3.3421749 3.023873 6.2068804 5.411141 8.7532995 2.387268 2.546419 5.092838 4.4562333 8.275862 5.7294428 3.183024 1.4323607 6.68435 2.0689496 10.663129 2.0689496 7.161804 0 13.050398-1.7506472 17.984085-5.2519734v-12.4137769h-19.257294v-16.5517078h37.718832v37.7187843c-4.774536 3.6604773-10.026525 6.8435011-16.233421 9.5490554z"/><path d="m580.813801 89.1246505v-86.73728716h19.098143v69.54899046h43.289124v17.1882967z"/><path d="m505.216986 89.1246505v-86.73728716h65.251988v17.02916146h-46.472148v17.6657502h40.901856v17.0291614h-40.901856v18.1432198h47.108752v17.0291455h-65.888592z"/><path d="m718.002127 74.9602105c-1.591512 3.342175-3.660478 6.2068964-6.525199 8.4350131-2.864721 2.2281166-6.047745 3.9787638-10.026525 5.2519733-3.819628 1.2732095-6.047745 1.7506631-10.822281 1.7506631-6.68435 0-15.119363-1.1140583-21.48541-3.342175-6.366048-2.2281007-12.095491-5.7294269-17.34748-10.5039626l11.299734-13.5278352c3.97878 3.1830238 7.95756 5.7294428 12.254642 7.6392571 4.137931 1.9098143 8.753315 2.8647055 13.687002 2.8647055 3.97878 0 7.002653-.7957401 9.230769-2.2281008 2.228117-1.4323607 3.342175-3.5013261 3.342175-6.0477452v-.3183024c0-1.2732095-.159151-2.3872678-.636604-3.342175-.477454-.9548912-1.27321-1.9097983-2.54642-2.7055543-1.273209-.7957559-3.023872-1.5915119-5.41114-2.546419-2.228117-.795756-5.251989-1.7506631-8.912467-2.546419-4.456233-1.1140584-8.435013-2.2281167-11.936339-3.6604774-3.501326-1.2732095-6.525199-3.0238567-9.071618-4.933671s-4.456233-4.2970821-5.729443-7.3209547c-1.43236-2.8647055-2.068965-6.5251829-2.068965-10.822265v-.3183024c0-3.9787639.795756-7.48009 2.228117-10.6631138 1.43236-3.1830238 3.501326-5.8885781 6.206896-8.275846 2.70557-2.38726785 5.888594-4.13793094 9.549071-5.25198927 3.660478-1.27320952 7.798409-1.90981428 12.254642-1.90981428 6.366048 0 12.254642.95490714 17.506631 2.86472142s10.185676 4.61538451 14.641909 8.11669473l-9.867373 14.3235912c-3.819629-2.7055543-7.639257-4.7745198-11.458886-6.2068805-3.660477-1.5915119-7.480106-2.2281166-11.140583-2.2281166-3.660478 0-6.525199.7957559-8.435013 2.2281166-1.909815 1.4323607-2.864722 3.1830238-2.864722 5.4111246v.3183024c0 1.4323607.318303 2.546419.795756 3.6604773.477454.9549072 1.432361 1.9098143 2.864722 2.8647215 1.43236.7957559 3.342175 1.5915119 5.729442 2.3872678 2.387268.795756 5.570292 1.5915119 9.230769 2.5464031 4.456234 1.1140584 8.275862 2.3872679 11.777189 3.9787798 3.501326 1.4323607 6.366047 3.1830238 8.753315 5.2519892 2.387268 2.0689655 4.137931 4.4562175 5.41114 7.1617877 1.27321 2.7055702 1.750664 6.0477452 1.750664 9.7082067v.3183023c0 4.4562334-.636605 8.2758619-2.228117 11.618021z"/></g></g><path d="m215.694955 196.484309h-16.870027l-35.013261-87.373892h21.007957l22.599469 61.113977 22.599469-61.113977h20.530503z" fill="#000"/><path d="m267.25994 109.110433h16.870026l35.013262 87.373892h-21.007957l-22.75862-61.113978-22.599469 61.113978h-20.530504z" fill="#808285"/><g fill="#808285" transform="translate(233.130477 223.062573)"><path d="m1.50346946 26.0939357h5.88859403v6.0477453h-5.88859403z"/><path d="m18.2143444.94809547h5.5702917v26.25989863h16.3925725v4.9336869h-21.9628642z"/><path d="m46.384105 16.7040314c0-8.91245068 6.8435012-16.2333895 16.3925726-16.2333895s16.3925726 7.32093882 16.3925726 16.0742384v.1591511c0 8.7533155-6.8435012 16.2334055-16.3925726 16.2334055-9.5490714-.1591512-16.3925726-7.48009-16.3925726-16.2334055zm27.0557023 0c0-6.2068804-4.4562333-11.29971853-10.6631297-11.29971853s-10.5039785 4.93368693-10.5039785 10.98141623v.1591512c0 6.0477452 4.4562333 11.1405673 10.6631297 11.1405673s10.5039785-4.9336709 10.5039785-10.9814162z"/><path d="m89.6732287.94809547h5.0928381l16.7108752 21.64453003v-21.64453003h5.41114v31.35273673h-4.615384l-17.1883288-22.2811348v22.2811348h-5.4111405z"/><path d="m128.66527.94809547h11.618037c9.867374 0 16.710875 6.68433406 16.710875 15.59678483v.1591511c0 8.7533155-6.843501 15.5968008-16.710875 15.5968008h-11.618037zm11.618037 26.25989863c6.525199 0 10.822281-4.4562174 10.822281-10.5039627v-.1591511c0-6.0477293-4.297082-10.66311386-10.822281-10.66311386h-6.206896v21.32622766z"/><path d="m166.0658 16.7040314c0-8.91245068 6.843501-16.2333895 16.392572-16.2333895 9.549072 0 16.392573 7.32093882 16.392573 16.0742384v.1591511c0 8.7533155-6.843501 16.2334055-16.392573 16.2334055-9.708222-.1591512-16.392572-7.48009-16.392572-16.2334055zm26.896551 0c0-6.2068804-4.456233-11.29971853-10.66313-11.29971853-6.206896 0-10.503978 4.93368693-10.503978 10.98141623v.1591512c0 6.0477452 4.456233 11.1405673 10.663129 11.1405673 6.206897 0 10.503979-4.9336709 10.503979-10.9814162z"/><path d="m209.195772.94809547h5.092838l16.710875 21.64453003v-21.64453003h5.411141v31.35273673h-4.615385l-17.188328-22.2811348v22.2811348h-5.411141z"/></g><path d="m360.522537 5.98058907c-59.681696 0-108.063658 15.27849833-108.063658 34.05830693 0 18.7798245 48.381962 34.0583228 108.063658 34.0583228 59.681697 0 108.063658-15.2784983 108.063658-34.0583228 0-18.7798086-48.381961-34.05830693-108.063658-34.05830693zm0 52.67898023c-51.564985 0-93.262597-10.1856602-93.262597-22.7585883s41.697612-22.7586043 93.262597-22.7586043c51.564986 0 93.262598 10.1856762 93.262598 22.7586043s-41.697612 22.7585883-93.262598 22.7585883z" fill="url(#a)"/><path d="m425.297072 63.5932403c.636605 12.2546257-15.915119 23.0768907-37.082227 24.190949-21.007958 1.1140584-38.67374-8.1166948-39.310344-20.3713205-.636605-12.2546257 15.915119-23.0768907 37.082227-24.190949 21.007957-.9549072 38.673739 8.1166948 39.310344 20.3713205z" fill="url(#b)"/><path d="m345.084872 9.95936882c.477454 6.36603168-7.480106 12.09547448-17.824933 12.89123048-10.344828.7957559-19.257294-3.5013262-19.734748-9.8673738-.477453-6.36603167 7.480106-12.09547451 17.824933-12.89121455 10.344828-.79575595 19.257294 3.66046146 19.734748 9.86735787z" fill="url(#c)"/></g></svg>

<svg width="720px" height="256px" viewBox="0 0 720 256" version="1.1" xmlns="http://www.w3.org/2000/svg" xmlns:xlink="http://www.w3.org/1999/xlink">
    <defs>
        <linearGradient x1="19.6323336%" y1="58.0245924%" x2="80.358313%" y2="41.9651257%" id="linearGradient-1">
            <stop stop-color="#FBB040" offset="4.250693%"></stop>
            <stop stop-color="#FFFBCC" offset="49.14%"></stop>
            <stop stop-color="#FBB040" offset="100%"></stop>
        </linearGradient>
        <radialGradient cx="50.0075397%" cy="50.1181446%" fx="50.0075397%" fy="50.1181446%" r="85.3656986%" gradientTransform="translate(0.500075,0.501181),scale(0.585156,1.000000),rotate(-2.875581),translate(-0.500075,-0.501181)" id="radialGradient-2">
            <stop stop-color="#FFFFFF" offset="20.59%"></stop>
            <stop stop-color="#FFFFFF" stop-opacity="0" offset="100%"></stop>
        </radialGradient>
        <radialGradient cx="49.9882549%" cy="50.419097%" fx="49.9882549%" fy="50.419097%" r="82.0418623%" gradientTransform="translate(0.499883,0.504191),scale(0.610240,1.000000),rotate(-4.681547),translate(-0.499883,-0.504191)" id="radialGradient-3">
            <stop stop-color="#FFFFFF" offset="26.17%"></stop>
            <stop stop-color="#FFFFFF" stop-opacity="0" offset="100%"></stop>
        </radialGradient>
    </defs>
    <g id="Page-1" stroke="none" stroke-width="1" fill="none" fill-rule="evenodd">
        <g id="devangels" transform="translate(-1.000000, 0.000000)" fill-rule="nonzero">
            <g transform="translate(0.769739, 106.882205)">
                <path fill="#000" d="M76.7819823,62.864736 C74.5538657,68.1167252 71.3708419,72.7321097 67.2329109,76.5517224 C63.09498,80.3713509 58.3204443,83.5543747 52.5910015,85.7824755 C46.8615586,88.0105922 40.6546622,89.1246505 33.9703122,89.1246505 L0.230259942,89.1246505 L0.230259942,2.38736334 L33.9703122,2.38736334 C40.8138134,2.38736334 47.0207098,3.50142167 52.5910015,5.72953833 C58.3204443,7.95765499 63.09498,10.9815276 67.2329109,14.8011402 C71.3708419,18.6207688 74.5538657,23.2361533 76.7819823,28.4881267 C79.010099,33.7401159 80.1241573,39.4695429 80.1241573,45.5172881 L80.1241573,45.8355905 C80.2833085,51.8833198 79.010099,57.6127626 76.7819823,62.864736 Z M60.2302586,45.8355905 C60.2302586,42.0159619 59.5936538,38.5146357 58.3204443,35.3316278 C57.0472348,32.148604 55.2965717,29.2838826 53.068455,27.055766 C50.8403384,24.6684981 47.9756169,22.9178509 44.7925931,21.6446414 C41.6095693,20.3714319 37.949092,19.7348271 34.1294634,19.7348271 L19.3284027,19.7348271 L19.3284027,71.9363538 L34.1294634,71.9363538 C37.949092,71.9363538 41.6095693,71.299749 44.7925931,70.0265395 C47.9756169,68.75333 50.6811872,67.0026669 53.068455,64.7745502 C55.2965717,62.3872824 57.0472348,59.6817281 58.3204443,56.6578555 C59.5936538,53.4748317 60.2302586,49.9735055 60.2302586,46.1538928 L60.2302586,45.8355905 L60.2302586,45.8355905 Z" id="path9" fill="#FFFFFF"></path>
                <polygon id="path11" fill="#000" points="89.036624 89.1246505 89.036624 2.38736334 154.288612 2.38736334 154.288612 19.4165248 107.816464 19.4165248 107.816464 37.082275 148.71832 37.082275 148.71832 54.1114364 107.816464 54.1114364 107.816464 72.2546562 154.925217 72.2546562 154.925217 89.2838017 89.036624 89.2838017"></polygon>
                <polygon id="path15" fill="#808285" points="383.625477 89.1246505 341.609562 34.0584183 341.609562 89.1246505 322.829722 89.1246505 322.829722 2.38736334 340.495504 2.38736334 381.079058 55.7029483 381.079058 2.38736334 399.858898 2.38736334 399.858898 89.1246505 383.625477 89.1246505"></polygon>
                <path d="M477.365528,86.5782314 C471.158631,89.2838017 464.155979,90.5570112 456.198419,90.5570112 C449.354918,90.5570112 443.307173,89.4429529 437.736881,87.2148362 C432.16659,84.9867355 427.392054,81.9628628 423.413274,77.9840831 C419.434494,74.0053033 416.251471,69.3899348 414.023354,63.8196431 C411.795237,58.4085186 410.681179,52.3607733 410.681179,45.9947417 L410.681179,45.6764393 C410.681179,39.4695429 411.795237,33.7401159 414.023354,28.3289755 C416.251471,22.9178509 419.434494,18.1433152 423.572425,14.1645355 C427.551205,10.0266205 432.484892,6.84359666 437.896032,4.45632881 C443.466324,2.06906096 449.514069,0.955002631 456.039268,0.955002631 C459.858897,0.955002631 463.519374,1.27330501 466.702398,1.75075858 C469.885422,2.22821215 472.909294,3.0239681 475.614864,3.97887524 C478.320435,4.93378238 480.866854,6.2069919 483.254122,7.63935261 C485.641389,9.07171332 488.028657,10.8223764 490.256774,12.7321748 L478.320435,27.2149172 C476.728923,25.7825564 474.97826,24.5093469 473.386748,23.5544557 C471.795236,22.4403974 470.044573,21.6446414 468.29391,20.8488855 C466.543247,20.0531295 464.633432,19.5756759 462.564467,19.0982224 C460.495501,18.6207688 458.267385,18.4616176 455.720966,18.4616176 C452.21964,18.4616176 449.036616,19.2573736 446.012743,20.6897343 C442.988871,22.122095 440.2833,24.0318934 438.055184,26.5783124 C435.827067,28.9655802 434.076404,31.8303017 432.803194,35.1724767 C431.529985,38.5146357 430.89338,42.0159619 430.89338,45.6764393 L430.89338,45.9947417 C430.89338,49.9735055 431.529985,53.6339829 432.803194,56.9761579 C434.076404,60.3183328 435.827067,63.1830383 438.214335,65.7294574 C440.601603,68.2758764 443.307173,70.1856907 446.490197,71.4589002 C449.673221,72.8912609 453.174547,73.5278498 457.153326,73.5278498 C464.31513,73.5278498 470.203724,71.7772026 475.137411,68.2758764 L475.137411,55.8620995 L455.880117,55.8620995 L455.880117,39.3103917 L493.598949,39.3103917 L493.598949,77.029176 C488.824413,80.6896533 483.572424,83.8726771 477.365528,86.5782314 L477.365528,86.5782314 Z" id="path17" fill="#808285"></path>
                <polygon id="path19" fill="#808285" points="580.813801 89.1246505 580.813801 2.38736334 599.911944 2.38736334 599.911944 71.9363538 643.201068 71.9363538 643.201068 89.1246505"></polygon>
                <polygon id="path21" fill="#808285" points="505.216986 89.1246505 505.216986 2.38736334 570.468974 2.38736334 570.468974 19.4165248 523.996826 19.4165248 523.996826 37.082275 564.898682 37.082275 564.898682 54.1114364 523.996826 54.1114364 523.996826 72.2546562 571.105578 72.2546562 571.105578 89.2838017 505.216986 89.2838017"></polygon>
                <path d="M718.002127,74.9602105 C716.410615,78.3023855 714.341649,81.1671069 711.476928,83.3952236 C708.612207,85.6233402 705.429183,87.3739874 701.450403,88.6471969 C697.630775,89.9204064 695.402658,90.39786 690.628122,90.39786 C683.943772,90.39786 675.508759,89.2838017 669.142712,87.055685 C662.776664,84.8275843 657.047221,81.3262581 651.795232,76.5517224 L663.094966,63.0238872 C667.073746,66.206911 671.052526,68.75333 675.349608,70.6631443 C679.487539,72.5729586 684.102923,73.5278498 689.03661,73.5278498 C693.01539,73.5278498 696.039263,72.7321097 698.267379,71.299749 C700.495496,69.8673883 701.609554,67.7984229 701.609554,65.2520038 L701.609554,64.9337014 C701.609554,63.6604919 701.450403,62.5464336 700.97295,61.5915264 C700.495496,60.6366352 699.69974,59.6817281 698.42653,58.8859721 C697.153321,58.0902162 695.402658,57.2944602 693.01539,56.3395531 C690.787273,55.5437971 687.763401,54.58889 684.102923,53.7931341 C679.64669,52.6790757 675.66791,51.5650174 672.166584,50.1326567 C668.665258,48.8594472 665.641385,47.1088 663.094966,45.1989857 C660.548547,43.2891714 658.638733,40.9019036 657.365523,37.878031 C655.933163,35.0133255 655.296558,31.3528481 655.296558,27.055766 L655.296558,26.7374636 C655.296558,22.7586997 656.092314,19.2573736 657.524675,16.0743498 C658.957035,12.891326 661.026001,10.1857717 663.731571,7.7985038 C666.437141,5.41123595 669.620165,3.66057286 673.280642,2.54651453 C676.94112,1.27330501 681.079051,0.636700251 685.535284,0.636700251 C691.901332,0.636700251 697.789926,1.59160739 703.041915,3.50142167 C708.293904,5.41123595 713.227591,8.11680618 717.683824,11.6181164 L707.816451,25.9417076 C703.996822,23.2361533 700.177194,21.1671878 696.357565,19.7348271 C692.697088,18.1433152 688.877459,17.5067105 685.216982,17.5067105 C681.556504,17.5067105 678.691783,18.3024664 676.781969,19.7348271 C674.872154,21.1671878 673.917247,22.9178509 673.917247,25.1459517 L673.917247,25.4642541 C673.917247,26.8966148 674.23555,28.0106731 674.713003,29.1247314 C675.190457,30.0796386 676.145364,31.0345457 677.577725,31.9894529 C679.010085,32.7852088 680.9199,33.5809648 683.307167,34.3767207 C685.694435,35.1724767 688.877459,35.9682326 692.537936,36.9231238 C696.99417,38.0371822 700.813798,39.3103917 704.315125,40.9019036 C707.816451,42.3342643 710.681172,44.0849274 713.06844,46.1538928 C715.455708,48.2228583 717.206371,50.6101103 718.47958,53.3156805 C719.75279,56.0212507 720.230244,59.3634257 720.230244,63.0238872 L720.230244,63.3421895 C720.230244,67.7984229 719.593639,71.6180514 718.002127,74.9602105 L718.002127,74.9602105 Z" id="path23" fill="#808285"></path>
            </g>
            <polygon id="logo_v" fill="#000" points="215.694955 196.484309 198.824928 196.484309 163.811667 109.110417 184.819624 109.110417 207.419093 170.224394 230.018562 109.110417 250.549065 109.110417 215.694955 196.484309"></polygon>
            <polygon id="logo_a" fill="#808285" points="267.25994 109.110433 284.129966 109.110433 319.143228 196.484325 298.135271 196.484325 275.376651 135.370347 252.777182 196.484325 232.246678 196.484325 267.25994 109.110433"></polygon>
            <g id="g4283" transform="translate(233.130477, 223.062573)" fill="#808285">
                <polygon id="path29" points="1.50346946 26.0939357 7.39206349 26.0939357 7.39206349 32.141681 1.50346946 32.141681"></polygon>
                <polygon id="path31" points="18.2143444 0.948095469 23.7846361 0.948095469 23.7846361 27.2079941 40.1772086 27.2079941 40.1772086 32.141681 18.2143444 32.141681 18.2143444 0.948095469"></polygon>
                <path d="M46.384105,16.7040314 L46.384105,16.7040314 C46.384105,7.79158072 53.2276062,0.470641899 62.7766776,0.470641899 C72.325749,0.470641899 79.1692502,7.79158072 79.1692502,16.5448803 L79.1692502,16.7040314 C79.1692502,25.4573469 72.325749,32.9374369 62.7766776,32.9374369 C53.2276062,32.7782857 46.384105,25.4573469 46.384105,16.7040314 L46.384105,16.7040314 Z M73.4398073,16.7040314 L73.4398073,16.7040314 C73.4398073,10.497151 68.983574,5.40431287 62.7766776,5.40431287 C56.5697812,5.40431287 52.2726991,10.3379998 52.2726991,16.3857291 L52.2726991,16.5448803 C52.2726991,22.5926255 56.7289324,27.6854476 62.9358288,27.6854476 C69.1427252,27.6854476 73.4398073,22.7517767 73.4398073,16.7040314 L73.4398073,16.7040314 Z" id="path33"></path>
                <polygon id="path35" points="89.6732287 0.948095469 94.7660668 0.948095469 111.476942 22.5926255 111.476942 0.948095469 116.888082 0.948095469 116.888082 32.3008322 112.272698 32.3008322 95.0843692 10.0196974 95.0843692 32.3008322 89.6732287 32.3008322"></polygon>
                <path d="M128.66527,0.948095469 L140.283307,0.948095469 C150.150681,0.948095469 156.994182,7.63242953 156.994182,16.5448803 L156.994182,16.7040314 C156.994182,25.4573469 150.150681,32.3008322 140.283307,32.3008322 L128.66527,32.3008322 L128.66527,0.948095469 Z M140.283307,27.2079941 C146.808506,27.2079941 151.105588,22.7517767 151.105588,16.7040314 L151.105588,16.5448803 C151.105588,10.497151 146.808506,5.88176644 140.283307,5.88176644 L134.076411,5.88176644 L134.076411,27.2079941 L140.283307,27.2079941 Z" id="path37"></path>
                <path d="M166.0658,16.7040314 L166.0658,16.7040314 C166.0658,7.79158072 172.909301,0.470641899 182.458372,0.470641899 C192.007444,0.470641899 198.850945,7.79158072 198.850945,16.5448803 L198.850945,16.7040314 C198.850945,25.4573469 192.007444,32.9374369 182.458372,32.9374369 C172.75015,32.7782857 166.0658,25.4573469 166.0658,16.7040314 L166.0658,16.7040314 Z M192.962351,16.7040314 L192.962351,16.7040314 C192.962351,10.497151 188.506118,5.40431287 182.299221,5.40431287 C176.092325,5.40431287 171.795243,10.3379998 171.795243,16.3857291 L171.795243,16.5448803 C171.795243,22.5926255 176.251476,27.6854476 182.458372,27.6854476 C188.665269,27.6854476 192.962351,22.7517767 192.962351,16.7040314 L192.962351,16.7040314 Z" id="path39"></path>
                <polygon id="path41" points="209.195772 0.948095469 214.28861 0.948095469 230.999485 22.5926255 230.999485 0.948095469 236.410626 0.948095469 236.410626 32.3008322 231.795241 32.3008322 214.606913 10.0196974 214.606913 32.3008322 209.195772 32.3008322 209.195772 0.948095469"></polygon>
            </g>
            <path d="M360.522537,5.98058907 C300.840841,5.98058907 252.458879,21.2590874 252.458879,40.038896 C252.458879,58.8187205 300.840841,74.0972188 360.522537,74.0972188 C420.204234,74.0972188 468.586195,58.8187205 468.586195,40.038896 C468.586195,21.2590874 420.204234,5.98058907 360.522537,5.98058907 L360.522537,5.98058907 Z M360.522537,58.6595693 C308.957552,58.6595693 267.25994,48.4739091 267.25994,35.900981 C267.25994,23.3280529 308.957552,13.1423767 360.522537,13.1423767 C412.087523,13.1423767 453.785135,23.3280529 453.785135,35.900981 C453.785135,48.4739091 412.087523,58.6595693 360.522537,58.6595693 L360.522537,58.6595693 Z" id="halo" fill="url(#linearGradient-1)"></path>
            <path d="M425.297072,63.5932403 C425.933677,75.847866 409.381953,86.670131 388.214845,87.7841893 C367.206887,88.8982477 349.541105,79.6674945 348.904501,67.4128688 C348.267896,55.1582431 364.81962,44.3359781 385.986728,43.2219198 C406.994685,42.2670126 424.660467,51.3386146 425.297072,63.5932403 Z" id="spec2" fill="url(#radialGradient-2)"></path>
            <path d="M345.084872,9.95936882 C345.562326,16.3254005 337.604766,22.0548433 327.259939,22.8505993 C316.915111,23.6463552 308.002645,19.3492731 307.525191,12.9832255 C307.047738,6.61719383 315.005297,0.887750987 325.350124,0.0920109519 C335.694952,-0.703744998 344.607418,3.75247241 345.084872,9.95936882 Z" id="spec1" fill="url(#radialGradient-3)"></path>
        </g>
    </g>
</svg>
